X: 4433
T: Bonnie Charlie
R: hornpipe
M: 4/4
K: Dminor
A2)|:"Dm"D2(DE)F2(FG)|ABGA F2((3GAB)|A2D2D3F|"C"EFGEC2,(FE)|
"Dm"D2(DE)F2(FG)|ABGA F2((3GAB)|A2D2"A7"FED^C|"Dm" D4 (D:|
A)|"Dm"dedc A2A2|dedc A2f2|"C"efge c2c2|efge c2(fg)|
"F"a2(fa)"C" g2(eg)|"Bb" f2(df)"A7" fed^c|"Gm" d3 e "A7"fedc|"Dm"A2 d2 d2 A2|
"Dm"dedc A2A2|"F"f2f2 A3c|"Bb"BAGF "Gm"GFED|"C" EFGE C2(EF)
"F"A2(FA)"C"c2(Ac)|"Bb" defg "A7"fed^c|"Gm" dcBA "A7"AGFE|"Dm" D6D2||

